src/img/wm-icon.svg

<svg width="20" height="20" viewBox="0 0 20 20" fill="none" xmlns="http://www.w3.org/2000/svg">
<g clip-path="url(#clip0_4_184)">
<path d="M8.84077 0C10.251 0 11.5928 0.323103 12.7969 0.901077C12.9857 0.986269 13.1758 1.08823 13.364 1.19028L12.5384 1.92159L11.3007 0.646297L9.16802 2.51651L7.91214 1.17307L3.99048 4.65889L6.50126 7.39646L5.52108 8.24641L7.99822 10.984L7.01795 11.8336L10.5613 15.7274L12.6585 13.823L14.4826 15.8639C14.1211 16.136 13.7255 16.4086 13.296 16.6462C11.9886 17.3773 10.4747 17.8016 8.85814 17.8016C3.88691 17.8016 -0.154454 13.8066 -0.154454 8.89314C-0.172009 4.01286 3.87007 0 8.84077 0ZM7.18931 8.34864L9.33937 6.44418L11.2662 8.56952L9.11567 10.4738L7.18931 8.34864ZM8.72053 12.0214L10.8531 10.1001L12.7969 12.2253L10.6467 14.1298L8.72053 12.0214ZM5.65942 4.72713L7.80886 2.82267L9.73522 4.948L7.58507 6.85238L5.65942 4.72713ZM9.59741 3.70661L11.1971 2.27842L12.6423 3.85978L11.0426 5.30484L9.59741 3.70661ZM12.4529 10.2528L14.0521 8.82456L15.4972 10.4224L13.8974 11.8516L12.4529 10.2528ZM13.8631 13.4668L15.4629 12.0382L16.9068 13.6195L15.3076 15.0644L13.8631 13.4668ZM14.5168 6.12107L15.5831 5.16879L16.5459 6.22339L15.4799 7.17531L14.5168 6.12107ZM13.1408 2.97548L14.2071 2.00651L15.1707 3.07753L14.1036 4.02972L13.1408 2.97548ZM15.8755 9.26693L16.9417 8.31474L17.922 9.36899L16.8389 10.3209L15.8755 9.26693ZM11.0768 6.90341L12.6766 5.47513L14.1211 7.05614L12.522 8.48469L11.0768 6.90341Z" fill="#3E9CDC"/>
</g>
<defs>
<clipPath id="clip0_4_184">
<rect width="20" height="20" fill="white"/>
</clipPath>
</defs>
</svg>

<svg xmlns="http://www.w3.org/2000/svg" width="20" height="20" fill="none" viewBox="0 0 20 20"><g clip-path="url(#a)"><path fill="#3e9cdc" d="M8.84 0c1.411 0 2.753.323 3.957.901.189.085.379.187.567.29l-.826.73L11.301.647l-2.133 1.87-1.256-1.343L3.99 4.66l2.511 2.737-.98.85 2.477 2.738-.98.85 3.543 3.893 2.098-1.904 1.824 2.04c-.362.273-.758.546-1.187.783a9.07 9.07 0 0 1-4.438 1.156c-4.971 0-9.012-3.995-9.012-8.909C-.172 4.013 3.87 0 8.84 0M7.19 8.349l2.15-1.905 1.926 2.126-2.15 1.904zm1.53 3.672 2.133-1.92 1.944 2.124-2.15 1.905zM5.66 4.727l2.149-1.904 1.926 2.125-2.15 1.904zm3.937-1.02 1.6-1.429 1.445 1.582-1.6 1.445zm2.856 6.546 1.6-1.428 1.444 1.597-1.6 1.43zm1.41 3.214 1.6-1.429 1.444 1.582-1.6 1.444zm.654-7.346 1.066-.952.963 1.054-1.066.952zM13.14 2.975l1.066-.968.964 1.07-1.067.953zm2.735 6.292 1.066-.952.98 1.054-1.083.952zm-4.8-2.364 1.6-1.428 1.445 1.581-1.599 1.429z"/></g><defs><clipPath id="a"><path fill="#fff" d="M0 0h20v20H0z"/></clipPath></defs></svg>
